X: 3
T:Young Collins, Bledington 2
M:2/2
L:1/8
A:Bledington
P:A(AB)4
K:BPhr
P:A
|:BBde g2e2|f2a2 d3f|g2g2 a2gf|e2d2 B4:|
P:B
|:A2G2 ABc2|d2d2 B3d|e2d2 efg2|a2a2 g4 |
  BBde g2e2|f2a2 d3f|g2g2 a2gf|e2d2 B4:|

